X: 6305
T: Carraroe, The
R: jig
M: 6/8
K: Dmajor
|:DED F2A|dfe d2A|B/c/dB Adf|afd e2f|
DED F2A|dfe d2A|B/c/dB AFA|dAF E2D:|
|:dfa afa|bge edB|dfa afa|bge efe|
dfa afa|bge edB|d2B AFA|1 dAF E2D:|2 dAF E2F||

